X:660
T:Reel 660
M:4/4
K:Dmaj
L:1/8
AG|FEDF EDCA,| (3DCD A,D D2GF|EFED EFGB|AGFG F2AG|FDED CDCD|E>F (3EDE B2cd|ecdB FABG|AFDF G2AG|FDEC A,DCE|FDFA d2cd|BEEG FDFG|EFED CEAG|FDEC DCB,A,|EDCD E2G2|FDED  (3CDE DEFE| (3FGA Bc d2|
